X:1
T:Little Children, Come Away
T:Hart Pease Danks
T:Little Children, Come Away
T:Public Domain
T:Public Domain
C:Hart Pease Danks
Z:Public Domain
%%score ( 1 2 ) ( 3 4 )
L:1/8
M:4/4
K:D
V:1 treble 
V:2 treble 
V:3 bass 
V:4 bass 
V:1
 [FA]3 [GB] [FA]2 [DF]2 | D2 [CE]2 [DF]4 | [DG]2 [DB]2 [DA]2 [DF]2 | [DF]2 [DE]2 [CE]4 | %4
w: 1.~Lit- tle child- ren,|come a- way,|the Sav- ior do|not stay: He|
w: 2.~Lit- tle child- ren|once He blest,|them in His arms|to rest; He|
w: 3.~Heed His say- ing,|“Come to Me”;|py then we all|shall be; None|
 D3 [DE] [DF]2 [FA]2 | [Ad]2 [Ac]2 ([Ac]2 [GB]2) | [FA]2 [DF]2 D2 [DF]2 | ([CE]4 D4) || %8
w: is call- ing us|day, Call- ing *|us to Him. *||
w: of all our friends|best, Bids us *|come to Him. Quick-|come, *|
w: can give us life|He, Come, O *|come to Him. *||
"^Refrain" [DB]2 [DB]2 [DB]2 z2 | [DA]2 [DA]2 [DA]2 z2 | [Gc]2 [Gc]2 [Fd]2 [DF]2 | %11
w: |||
w: ly come, From|the Sav- ior|do not stay; Quick-|
w: |||
 [B,E]2 [CB]2 [CA]4 | D3 [DE] [DF]2 [FA]2 | [Ad]2 [Ac]2 ([Ac]2 [GB]2) | [FA]2 [^EB]2 [FA]2 [DF]2 | %15
w: ||||
w: ly come, O|glad- ly come, He|call- ing us *|to- day. * *|
w: ||||
 [CE]3 D D4 |] %16
w: |
w: |
w: |
V:2
 x8 | D2 x6 | x8 | x8 | D3 x5 | x8 | x4 D2 x2 | x4 D4 || x8 | x8 | x8 | x8 | D3 x5 | x8 | x8 | %15
w: |From|||to-|||||||||||
w: |Laid|||the||ly|glad-|||||is|||
w: |Hap-|||but|||||||||||
 x3 D D4 |] %16
w: |
w: |
w: |
V:3
 [D,D]3 [D,D] [D,D]2 [D,A,]2 | [F,A,]2 A,2 [D,A,]4 | [B,,G,]2 [G,,G,]2 [D,F,]2 [D,A,]2 | %3
 [E,^G,]2 [E,G,]2 (A,2 =G,2) | [D,F,]3 [D,G,] [D,A,]2 [D,D]2 | [F,D]2 [F,D]2 [G,D]4 | %6
 [A,D]2 A,2 [A,,F,]2 [A,,A,]2 | ([A,,G,]4 [D,F,]4) || G,2 G,2 G,2 z2 | [F,A,]2 [F,A,]2 [F,A,]2 z2 | %10
 [E,A,]2 [A,,A,]2 [D,A,]2 [D,A,]2 | [E,A,]2 [E,^G,]2 (A,2 =G,2) | [D,F,]3 [D,G,] [D,A,]2 [D,D]2 | %13
 [F,D]2 [F,D]2 [G,D]4 | [A,D]2 [^G,D]2 [A,D]2 A,2 | [A,,G,]3 [D,F,] [D,F,]4 |] %16
V:4
 x8 | x2 A,2 x4 | x8 | x4 A,,4 | x8 | x8 | x2 A,2 x4 | x8 || G,2 G,2 G,2 x2 | x8 | x8 | x4 A,,4 | %12
 x8 | x8 | x6 A,2 | x8 |] %16

